X:41
T:Joys of Quebec
S:Bernie Waugh
R:Reel
M:2/4
L:1/16
K:A
|:\
ee|e[ec][ec][ec] [e2c2] ee|e[ec][ec][ec] [e2c2] ee|\
f2ee [d2e2][c2e2]|d[eB][eB][eB] [e2B2] [de][de]|
d[eB][eB][eB] [e2B2][d2e2]|d[eB][eB][eB] [e2B2] ef|1\
g2f2 efed|cB[A2e2] [A2e2] :|2f2e2 fefg|afec A2 cd||
|:\
[A2e2] z2[A2f2]z2|[A2e2][ce][ce] [c2e2]AB|\
[c2e2]z2 [d2f2]z2|[c2e2][c2e2]cBAB|
cBA2 G2A2|1B2BB B2ef|g2f2e2d2|c3c d2^d2:|2\
B2BB B2Bc|d2e2f2g2|a2 [ac][ac] [a2c2]|]

